svg/emoji_u1fad8.svg

<?xml version="1.0" encoding="UTF-8" standalone="no"?>
<!DOCTYPE svg PUBLIC "-//W3C//DTD SVG 1.1//EN" "http://www.w3.org/Graphics/SVG/1.1/DTD/svg11.dtd">
<svg width="100%" height="100%" viewBox="0 0 128 128" version="1.1" xmlns="http://www.w3.org/2000/svg" xmlns:xlink="http://www.w3.org/1999/xlink" xml:space="preserve" xmlns:serif="http://www.serif.com/" style="fill-rule:evenodd;clip-rule:evenodd;stroke-linejoin:round;stroke-miterlimit:2;">
    <path id="path40597" d="M57.326,8.496C55.691,8.485 53.812,8.652 52.773,8.988C45.612,10.202 39.654,18.393 33,23.16C25.62,28.45 12.31,26.92 5.6,38.68C3.519,42.333 3.108,46.071 3.873,49.393C4.085,50.635 4.572,52.899 5.65,55C7.6,58.79 11.431,63.42 18.811,65.08C29.721,67.53 42.731,63.561 55.301,55.141C67.871,46.721 74.699,32.741 72.189,21.801C69.859,11.661 63.541,9.04 58.881,8.57C58.423,8.525 57.89,8.5 57.326,8.496Z" style="fill:rgb(178,36,36);fill-rule:nonzero;"/>
    <path id="path40601" d="M41.47,20.55C40.33,20.35 39.34,23.05 34.22,26.4C27.3,30.93 23.09,30.11 23.59,32.42C23.99,34.27 27.95,35.44 33.23,33.74C42.21,30.85 44.27,21.05 41.47,20.55Z" style="fill:rgb(255,179,0);fill-rule:nonzero;"/>
    <path id="path40607" d="M90.045,29.15C86.422,29.107 80.645,30.243 77,34.631C72.42,40.141 72.369,48.951 73.029,54.061C73.689,59.171 77.59,75.541 84.43,82.711C84.569,82.857 84.716,82.994 84.857,83.137C89.059,88.498 95.12,93.807 103.279,95.33C118.199,98.12 125.441,84.899 124.221,74.699C122.941,63.979 117.899,63.031 109.539,52.561C106.439,48.671 104.899,40.64 100.699,34.93C96.969,29.85 94.191,29.511 91.301,29.211C91.268,29.208 91.237,29.216 91.205,29.215C90.848,29.181 90.468,29.155 90.045,29.15Z" style="fill:rgb(178,36,36);fill-rule:nonzero;"/>
    <path id="path40615" d="M95.95,43.47C95.14,44.13 94.02,49.06 99.1,57.41C105.03,67.16 110.16,65.46 110.6,64.42C111.04,63.38 107.06,60.08 105.29,57.64C102.12,53.27 101.13,51.11 99.07,47.02C98.18,45.25 96.82,42.76 95.95,43.47Z" style="fill:rgb(255,179,0);fill-rule:nonzero;"/>
    <path id="path40617" d="M29.625,73.82C29.314,73.826 29,73.838 28.68,73.859C21.61,74.319 17.43,78.31 15.75,81.67C15.189,82.791 14.629,84.195 14.275,85.734C14.22,85.977 14.167,86.222 14.123,86.471C14.082,86.689 14.046,86.943 14.008,87.203C13.978,87.402 13.945,87.579 13.92,87.801C13.51,91.361 13.921,97.43 16.961,102.68C19.541,107.13 23.77,110.62 29.57,113.24C33.14,114.86 37.711,116.21 43.961,117.51C62.171,121.29 84.25,116.169 86.51,99.039C87.43,92.089 83.409,86.641 79.939,83.961C78.98,83.219 78.008,82.644 77.061,82.197C76.128,81.716 75.111,81.359 74.021,81.135C72.56,80.786 71.329,80.704 70.498,80.703C64.708,80.282 57.99,80.83 56.039,80.83C44.579,80.83 39.256,73.659 29.625,73.82Z" style="fill:rgb(178,36,36);fill-rule:nonzero;"/>
    <path id="path40621" d="M42.44,81.42C41.32,82.57 44.51,88.9 52.46,89.37C60.41,89.84 63.48,84.75 62.48,84.09C61.89,83.7 55.62,83.93 52.6,83.62C47.38,83.1 43.09,80.76 42.44,81.42Z" style="fill:rgb(255,179,0);fill-rule:nonzero;"/>
</svg>

<?xml version="1.0" encoding="utf-8"?>
<!-- Generator: Adobe Illustrator 25.2.3, SVG Export Plug-In . SVG Version: 6.00 Build 0)  -->
<svg version="1.1" id="Layer_3" xmlns="http://www.w3.org/2000/svg" xmlns:xlink="http://www.w3.org/1999/xlink" x="0" y="0"
	 viewBox="0 0 128 128" style="enable-background:new 0 0 128 128;" xml:space="preserve">
<path style="fill:#871E0C;" d="M56.96,30.28L3.72,48.43c0,0,0.37,3.53,1.93,6.57c1.95,3.79,5.78,8.42,13.16,10.08
	c10.91,2.45,23.92-1.52,36.49-9.94S74.7,32.74,72.19,21.8C69.86,11.66,63.54,9.04,58.88,8.57c-1.83-0.18-4.87-0.03-6.22,0.45
	C50.56,9.75,56.96,30.28,56.96,30.28z"/>
<path style="fill:#A62714;" d="M33,23.16c-7.38,5.29-20.69,3.76-27.4,15.52c-5.98,10.5,1.8,21.7,11.81,21.7
	c9.9,0,23-4.58,32.77-11.05c10.2-6.76,23.93-28.06,12.94-36.98C50.73,2.29,42.59,16.29,33,23.16z"/>
<path style="fill:#FBCB89;" d="M41.47,20.55c-1.14-0.2-2.13,2.5-7.25,5.85c-6.92,4.53-11.13,3.71-10.63,6.02
	c0.4,1.85,4.36,3.02,9.64,1.32C42.21,30.85,44.27,21.05,41.47,20.55z"/>
<path style="fill:#D16250;" d="M46.59,19.96c-2.26-1.23-1.02-4.23,1.73-6.68c2.97-2.64,6.43-2.39,7.25-1.07
	c1.04,1.66-1.54,3.74-3.05,5.11C50.71,18.98,49.31,21.45,46.59,19.96z"/>
<path style="fill:#D16250;" d="M17.06,35.91c-1.82-2.28-5.39-0.11-7.5,2.72C7.17,41.84,5.94,49.67,9.23,50
	c2.47,0.25,2.47-4.37,4.12-6.51C15,41.35,19.03,38.38,17.06,35.91z"/>
<path style="fill:#871E0C;" d="M86.53,35.06c0,0,1.99-6.14,4.77-5.85c2.89,0.3,5.67,0.64,9.4,5.72c4.2,5.71,5.74,13.74,8.84,17.63
	c8.36,10.47,13.4,11.42,14.68,22.14c1.22,10.2-6.02,23.42-20.94,20.63c-18.05-3.37-25.87-25.27-25.87-25.27L86.53,35.06z"/>
<path style="fill:#A62714;" d="M77,34.63c-4.58,5.51-4.63,14.32-3.97,19.43s4.56,21.48,11.4,28.65c6.84,7.17,16.83,11.38,24,8.91
	c7.17-2.47,10.91-7.88,9.61-16.45c-0.7-4.62-3.63-8.63-7.83-11.68c-4.2-3.05-11.46-11.04-11.46-11.04s-2.06-10.71-2.47-14.5
	c-0.41-3.79-0.38-7.37-3.49-8.44C90.51,28.71,81.86,28.78,77,34.63z"/>
<path style="fill:#D16250;" d="M85.81,35.06c-1.55-1.42-3.44-0.37-4.18,0.92c-0.66,1.15-1.04,2.57,0.16,3.51
	c1.48,1.15,2.68,0.27,3.85-0.96C86.52,37.59,86.8,35.96,85.81,35.06z"/>
<path style="fill:#D16250;" d="M78.89,42.76c-1.52,0.25-3.15,2.47-2.19,10.95c1.15,10.13,5.92,18.18,9.31,22.84
	c3.51,4.82,6.92,4.01,6.96,3.51c0.11-1.42-2.14-3.56-4.87-8.82c-4.1-7.87-6.55-16.06-6.9-20.37C80.7,44.74,80.86,42.44,78.89,42.76z
	"/>
<path style="fill:#FBCB89;" d="M95.95,43.47c-0.81,0.66-1.93,5.59,3.15,13.94c5.93,9.75,11.06,8.05,11.5,7.01
	c0.44-1.04-3.54-4.34-5.31-6.78c-3.17-4.37-4.16-6.53-6.22-10.62C98.18,45.25,96.82,42.76,95.95,43.47z"/>
<path style="fill:#871E0C;" d="M50.42,95.6c-0.25-0.08-35.94-10.62-35.94-10.62s-0.36,1.07-0.56,2.82c-0.41,3.56,0,9.63,3.04,14.88
	c2.58,4.45,6.81,7.94,12.61,10.56c3.57,1.62,8.14,2.97,14.39,4.27c18.21,3.78,40.29-1.34,42.55-18.47c0.92-6.95-3.1-12.4-6.57-15.08
	c-5.08-3.93-10.55-3.21-10.55-3.21L50.42,95.6z"/>
<path style="fill:#A62714;" d="M56.04,80.83c-11.83,0-17.12-7.64-27.36-6.97c-7.07,0.46-11.25,4.45-12.93,7.81
	c-1.68,3.36-3.41,9.22,0.67,13.85c4.45,5.04,11.41,12.34,32.9,16.03c21.81,3.75,32.57-9.4,33.49-16.95
	c0.92-7.55-3.27-12.67-9.48-13.6C67.12,80.07,58.32,80.83,56.04,80.83z"/>
<path style="fill:#FBCB89;" d="M42.44,81.42c-1.12,1.15,2.07,7.48,10.02,7.95s11.02-4.62,10.02-5.28c-0.59-0.39-6.86-0.16-9.88-0.47
	C47.38,83.1,43.09,80.76,42.44,81.42z"/>
<path style="fill:#D16250;" d="M34.85,80.66c-1.06,3.69-7.46,0.69-11.34,3.1c-4.16,2.57-5.48,7.32-6.46,7.32
	c-1.45,0-1.55-8.38,5.87-12.53C28.46,75.45,35.6,78.06,34.85,80.66z"/>
</svg>
